X:90
T:Captain David Stewart 42nd Royal Highlanders-Afterwards General Stewart
R:Reel
B:The Athole Collection
M:C|
L:1/8
K:D
E|DddA FDAF|E=ccG ECEG|DddA FGAg|fdef d/d/d d:|
g|f>eda fdaf|ge=cg ecge|f>eda dfaf|ecge d/d/d dg|f>eda fdaf|
ge=cg ecge|dfeg fagb|afge d/d/d d||

